X: 28590
T: Murroe, The
R: polka
M: 2/4
K: Gmajor
|:A/|Bd G>A|Bd GB|AB/A/ FD|AB/A/ FD|
Bd G>A|Bd GB|AB/A/ FD|G2 G3/2:|
|:A/|Bd ef|g2 fe|ed d>f|ed c/B/A|
[1 Bd ef|g2 fe|ed Bd|e2 e3/2:|
[2 B/c/d G>A|Bd GB|AB/A/ FD|G2 G3/2||

